X:104
T:Carpenter's Maggot
M:6/8
L:1/8
S:Colin Hume's website,  colinhume.com  - chords can also be printed below the stave.
N:I haven't chorded this yet because I can't work out the dance instructions!
Q:3/8=90
C:Henry Playford, 1701
%%MIDI ratio 3 1
K:D
P:A
|: D>ED FAA | d3 f3 | e>fe eBd | c3 A2a | b>ag f/g/ac | dBe c2A |
B/c/dB c/d/eA | B/c/dB c/d/eA | a3 f>gf | gcd eBc | d3 D3 :|
P:B
|: fdd g>ab | ab/a/g/f/ g2a | ged BB/c/d | cac Ba^g | a3 A3 |
fdd caa | ecc Bgg | dBB Aff | Gee Fdd | Edc d2F |
G>AB AG/F/E/D/ | C/D/EA, a3 | fgf ecA | d3 D3 :|

